assets/svg/networks/wallet_ogy.svg

<svg width="36" height="36" viewBox="0 0 36 36" fill="none" xmlns="http://www.w3.org/2000/svg">
<g clip-path="url(#clip0_52314_201700)">
<rect width="36" height="36" rx="10" fill="#F5F7FF"/>
<path d="M8.2695 11.5838C7.88112 11.5838 7.56653 11.8988 7.56653 12.2877V20.7979H7.56853C7.56903 21.3501 7.67794 21.8862 7.89066 22.3907C8.09653 22.8786 8.39509 23.3217 8.76974 23.6955C9.14602 24.0724 9.58456 24.3688 10.0733 24.5754C10.566 24.7844 11.0888 24.8929 11.6282 24.8979H12.6162C12.0893 24.8743 11.6638 24.4397 11.6638 23.9061L11.6623 12.2872C11.6623 11.8983 11.3478 11.5833 10.9594 11.5833H8.2695V11.5838Z" fill="url(#paint0_linear_52314_201700)"/>
<path d="M7.56653 20.797V24.3042C7.56653 24.9378 7.69043 25.5528 7.93482 26.1316C8.17063 26.6904 8.50885 27.1923 8.9393 27.6234C9.36984 28.0545 9.87108 28.3927 10.4296 28.6293C11.0075 28.874 11.6212 28.9982 12.2544 28.9982H21.7441C22.1789 28.9634 22.6053 28.8589 23.007 28.6886C23.4952 28.4821 23.9338 28.1857 24.3101 27.8083C24.6844 27.4342 24.9829 26.9911 25.1891 26.5034C25.4029 25.9975 25.5113 25.4593 25.5113 24.9051V23.8972C25.5113 24.4454 25.0592 24.8895 24.5113 24.8895L12.6182 24.8966H11.6688C11.1154 24.8966 10.5785 24.788 10.0733 24.574C9.58506 24.3675 9.14652 24.0716 8.76974 23.6942C8.39541 23.3202 8.09705 22.877 7.89116 22.3893C7.67834 21.8853 7.56879 21.3437 7.56903 20.7965H7.56703L7.56653 20.797Z" fill="url(#paint1_linear_52314_201700)"/>
<path d="M12.6369 6H6.71817C6.37246 6 6.11907 6.28441 6.09998 6.63006C6.03978 7.71389 5.91534 8.36256 5.63187 9.35593C5.52646 9.72625 5.76231 10.1141 6.14714 10.1141H24.5054C27.2636 10.1423 29.6063 12.3737 29.6063 15.1925L29.6043 10.7C29.6043 8.71176 28.371 7.01093 26.6283 6.32509C26.6163 6.32008 26.6043 6.31558 26.5922 6.31103L26.5777 6.30553C26.0463 6.10296 25.4868 6 24.9108 6H12.6369Z" fill="url(#paint2_linear_52314_201700)"/>
<path d="M25.5038 11.1095H25.5093L25.5108 23.8839V24.8919C25.5108 25.4461 25.4025 25.9843 25.1887 26.4902C24.9829 26.978 24.6845 27.4211 24.3101 27.7951C23.9338 28.172 23.4953 28.4684 23.0071 28.6754C22.6054 28.8457 22.179 28.9502 21.7442 28.9849C21.6358 28.9935 21.5264 28.998 21.4165 28.998V29H24.9188C25.5515 29 26.1656 28.8759 26.7437 28.6312C27.3016 28.3946 27.8028 28.0559 28.2334 27.6253C28.6639 27.1942 29.002 26.6922 29.2384 26.133C29.4827 25.5542 29.6066 24.9397 29.6066 24.3055V15.2261C29.6061 12.4093 27.3302 10.1257 24.5199 10.1171C25.0638 10.1206 25.5043 10.5633 25.5043 11.1095" fill="url(#paint3_linear_52314_201700)"/>
</g>
<defs>
<linearGradient id="paint0_linear_52314_201700" x1="10.0913" y1="11.5838" x2="10.0913" y2="24.8984" gradientUnits="userSpaceOnUse">
<stop offset="0.03" stop-color="#076132"/>
<stop offset="0.3" stop-color="#077F40"/>
<stop offset="0.32" stop-color="#128541"/>
<stop offset="0.4" stop-color="#2D9443"/>
<stop offset="0.47" stop-color="#409F45"/>
<stop offset="0.55" stop-color="#4CA546"/>
<stop offset="0.63" stop-color="#50A847"/>
<stop offset="0.74" stop-color="#57A946"/>
<stop offset="0.9" stop-color="#6BAE43"/>
<stop offset="0.91" stop-color="#6EAF43"/>
</linearGradient>
<linearGradient id="paint1_linear_52314_201700" x1="25.5113" y1="24.8981" x2="7.56653" y2="24.8981" gradientUnits="userSpaceOnUse">
<stop offset="0.03" stop-color="#209BD3"/>
<stop offset="0.3" stop-color="#1471B1"/>
<stop offset="0.36" stop-color="#195FA1"/>
<stop offset="0.44" stop-color="#204C90"/>
<stop offset="0.53" stop-color="#234086"/>
<stop offset="0.63" stop-color="#253D83"/>
<stop offset="0.69" stop-color="#24397B"/>
<stop offset="0.79" stop-color="#213167"/>
<stop offset="0.91" stop-color="#1D2345"/>
</linearGradient>
<linearGradient id="paint2_linear_52314_201700" x1="7.91134" y1="3.33041" x2="29.3262" y2="15.677" gradientUnits="userSpaceOnUse">
<stop stop-color="#EBE128"/>
<stop offset="0.44" stop-color="#F1A21F"/>
<stop offset="0.56" stop-color="#E76522"/>
<stop offset="0.68" stop-color="#DF3424"/>
<stop offset="0.73" stop-color="#DC2226"/>
<stop offset="1" stop-color="#DA1F26"/>
</linearGradient>
<linearGradient id="paint3_linear_52314_201700" x1="25.5113" y1="29" x2="25.5113" y2="10.1171" gradientUnits="userSpaceOnUse">
<stop stop-color="#283270"/>
<stop offset="0.06" stop-color="#2F3271"/>
<stop offset="0.14" stop-color="#453576"/>
<stop offset="0.25" stop-color="#69397D"/>
<stop offset="0.29" stop-color="#7A3C81"/>
<stop offset="0.44" stop-color="#7F3382"/>
<stop offset="0.66" stop-color="#842E83"/>
<stop offset="0.97" stop-color="#57152A"/>
<stop offset="1" stop-color="#541323"/>
</linearGradient>
<clipPath id="clip0_52314_201700">
<rect width="36" height="36" fill="white"/>
</clipPath>
</defs>
</svg>

<svg xmlns="http://www.w3.org/2000/svg" width="36" height="36" fill="none"><g clip-path="url(#a)"><rect width="36" height="36" fill="#F5F7FF" rx="10"/><path fill="url(#b)" d="M8.27 11.584a.703.703 0 0 0-.703.704v8.51h.002a4.1 4.1 0 0 0 1.2 2.898 4.08 4.08 0 0 0 2.86 1.202h.987a.997.997 0 0 1-.952-.992l-.002-11.619a.703.703 0 0 0-.703-.704z"/><path fill="url(#c)" d="M7.567 20.797v3.507a4.67 4.67 0 0 0 1.372 3.32 4.67 4.67 0 0 0 3.315 1.374h9.49a4.07 4.07 0 0 0 2.566-1.19 4.1 4.1 0 0 0 1.201-2.903v-1.008a1 1 0 0 1-1 .993l-11.893.007h-.95a4.08 4.08 0 0 1-2.9-1.202 4.1 4.1 0 0 1-1.199-2.898z"/><path fill="url(#d)" d="M12.637 6H6.718c-.346 0-.599.284-.618.63-.06 1.084-.185 1.733-.468 2.726-.106.37.13.758.515.758h18.358c2.759.028 5.101 2.26 5.101 5.079l-.002-4.493a4.7 4.7 0 0 0-2.976-4.375l-.036-.014-.014-.005A4.7 4.7 0 0 0 24.91 6z"/><path fill="url(#e)" d="M25.504 11.11h.005l.002 12.774v1.008a4.09 4.09 0 0 1-1.2 2.903 4.1 4.1 0 0 1-2.895 1.203V29h3.503a4.66 4.66 0 0 0 3.314-1.375 4.68 4.68 0 0 0 1.374-3.32v-9.079c0-2.817-2.277-5.1-5.087-5.109a.99.99 0 0 1 .984.992"/></g><defs><linearGradient id="b" x1="10.091" x2="10.091" y1="11.584" y2="24.898" gradientUnits="userSpaceOnUse"><stop offset=".03" stop-color="#076132"/><stop offset=".3" stop-color="#077F40"/><stop offset=".32" stop-color="#128541"/><stop offset=".4" stop-color="#2D9443"/><stop offset=".47" stop-color="#409F45"/><stop offset=".55" stop-color="#4CA546"/><stop offset=".63" stop-color="#50A847"/><stop offset=".74" stop-color="#57A946"/><stop offset=".9" stop-color="#6BAE43"/><stop offset=".91" stop-color="#6EAF43"/></linearGradient><linearGradient id="c" x1="25.511" x2="7.567" y1="24.898" y2="24.898" gradientUnits="userSpaceOnUse"><stop offset=".03" stop-color="#209BD3"/><stop offset=".3" stop-color="#1471B1"/><stop offset=".36" stop-color="#195FA1"/><stop offset=".44" stop-color="#204C90"/><stop offset=".53" stop-color="#234086"/><stop offset=".63" stop-color="#253D83"/><stop offset=".69" stop-color="#24397B"/><stop offset=".79" stop-color="#213167"/><stop offset=".91" stop-color="#1D2345"/></linearGradient><linearGradient id="d" x1="7.911" x2="29.326" y1="3.33" y2="15.677" gradientUnits="userSpaceOnUse"><stop stop-color="#EBE128"/><stop offset=".44" stop-color="#F1A21F"/><stop offset=".56" stop-color="#E76522"/><stop offset=".68" stop-color="#DF3424"/><stop offset=".73" stop-color="#DC2226"/><stop offset="1" stop-color="#DA1F26"/></linearGradient><linearGradient id="e" x1="25.511" x2="25.511" y1="29" y2="10.117" gradientUnits="userSpaceOnUse"><stop stop-color="#283270"/><stop offset=".06" stop-color="#2F3271"/><stop offset=".14" stop-color="#453576"/><stop offset=".25" stop-color="#69397D"/><stop offset=".29" stop-color="#7A3C81"/><stop offset=".44" stop-color="#7F3382"/><stop offset=".66" stop-color="#842E83"/><stop offset=".97" stop-color="#57152A"/><stop offset="1" stop-color="#541323"/></linearGradient><clipPath id="a"><path fill="#fff" d="M0 0h36v36H0z"/></clipPath></defs></svg>
